core/assets/icons/passport.svg

<svg width="24" height="24" viewBox="0 0 24 24" xmlns="http://www.w3.org/2000/svg"><g id="passport" clip-path="url(#clip0_1647_258)"><path id="Vector" d="M19.0952 3H4.90474C4.85434 3 4.82914 3 4.80988 3.00981C4.79295 3.01844 4.77918 3.03221 4.77055 3.04914C4.76074 3.06839 4.76074 3.0936 4.76074 3.144V20.856C4.76074 20.9064 4.76074 20.9316 4.77055 20.9509C4.77918 20.9678 4.79295 20.9816 4.80988 20.9902C4.82914 21 4.85434 21 4.90474 21H19.0952C19.1456 21 19.1708 21 19.19 20.9902C19.207 20.9816 19.2207 20.9678 19.2294 20.9509C19.2392 20.9316 19.2392 20.9064 19.2392 20.856V3.144C19.2392 3.0936 19.2392 3.06839 19.2294 3.04914C19.2207 3.03221 19.207 3.01844 19.19 3.00981C19.1708 3 19.1456 3 19.0952 3Z" stroke-width="2"/><circle id="Vector_2" cx="11.9999" cy="9.62855" r="3.37147" stroke-width="2"/><path id="Vector_3" d="M9.36963 17H14.6306" stroke-width="2"/></g><defs><clipPath id="clip0_1647_258"><rect width="24" height="24"/></clipPath></defs></svg>

<svg xmlns="http://www.w3.org/2000/svg" width="24" height="24" fill="none"><g stroke="#191C22" stroke-width="2" clip-path="url(#a)"><path d="M19.095 3H4.905c-.05 0-.076 0-.095.01a.09.09 0 0 0-.04.04c-.01.018-.01.044-.01.094v17.712c0 .05 0 .076.01.095a.09.09 0 0 0 .04.04c.02.009.044.009.095.009h14.19c.05 0 .076 0 .095-.01a.09.09 0 0 0 .04-.04c.01-.018.01-.044.01-.094V3.144c0-.05 0-.076-.01-.095a.09.09 0 0 0-.04-.04C19.17 3 19.146 3 19.095 3Z"/><circle cx="12" cy="9.629" r="3.371"/><path d="M9.37 17h5.26"/></g><defs><clipPath id="a"><path fill="#fff" d="M0 0h24v24H0z"/></clipPath></defs></svg>
